X:27
T:Just a going. Roose.0205
B:Roose MS, 1850
Z:Village Music Project 2019 Roger Hare
M:C|
L:1/8
Q:1/4=120
K:D
|: g | (f/g/a) fd (f/g/a) fd | gecA gecA | G3 b F3 a | fdec d2 D :|
|: z | (f/g/a) bg (e/f/g) af | (d/e/f) gf e/d/c/B/ AG | FA df Aceg | fdec d2 D :|

